!!!!SEGMENT: pl-kk--kk-i-288--002_anonim--alleluia-ave-virgo-maria.krn
!!!cenid: 16xx:1094
!!!COM: Anonim
!!!COM-rismID: pe30004985
!!!CDT:
!!!CNT:
!!!OTL: Alleluia ave virgo Maria
!!!PDT:
!!!AGN: Sacred
!!!SMS-siglum: PL-Kk
!!!SMS-shelfmark: Kk.I.288
!!!SMS-shelfwork: 002 W
!!!SMS-variant:
!!!SMS-altvar:
!!!NIFC-rismSourceID: 1001147285
!!!NIFC-islandoraID: pl-kk:5015
!!!URL-pdf-islandora: https://repozytorium.nifc.pl/islandora/object/pl-kk%3A5015/datastream/PDF/view
!!!URL-scan: https://polish.musicsources.pl/pl/lokalizacje/galeria/rekopisy/5906 @EN{Scan on Polish Music Sources Website} @PL{Skany w portalu Dziedzictwo Muzyki Polskiej w otwartym dostępie}
!!!ONB-nifc: UWAGA: utwory w zbiorze: 1. Spiritus Domini, 2. Alleluia ave virgo Maria, 3. Venit caeli nuntius, 4. Factus est repente
!!!AIN: 1 alto 1 empty 2 tenor 1 vox
!!!key:
**kern	**text	**text	**kern	**text	**text	**kern	**text	**kern	**text	**kern	**text
*part5	*part5	*part5	*part4	*part4	*part4	*part3	*part3	*part2	*part2	*part1	*part1
*staff5	*staff5	*staff5	*staff4	*staff4	*staff4	*staff3	*staff3	*staff2	*staff2	*staff1	*staff1
*Iempty	*	*	*Itenor	*	*	*Itenor	*	*Ialto	*	*Ivox	*
*I"[Basso]	*	*	*I"[Tenore 2]	*	*	*I"[Tenore 1]	*	*I"[Alto]	*	*I"[Canto]	*
*I'B	*	*	*I'T 2	*	*	*I'T 1	*	*I'A	*	*I'S	*
*clefF4	*	*	*clefC4	*	*	*clefC4	*	*clefC3	*	*clefC1	*
*k[b-e-]	*	*	*k[b-]	*	*	*k[b-]	*	*k[b-]	*	*k[b-]	*
*g:	*	*	*g:	*	*	*g:	*	*g:	*	*g:	*
*M2/1	*	*	*M2/1	*	*	*M2/1	*	*M2/1	*	*M2/1	*
*met(C|)	*	*	*met(C)	*	*	*met(C)	*	*met(C)	*	*met(C)	*
=1-	=1-	=1-	=1-	=1-	=1-	=1-	=1-	=1-	=1-	=1-	=1-
!!LO:TX:t=P:problem:partia Basso z 2 bemolami
*2	*	*	*	*	*	*	*	*2\right	*	*	*
!	!	!	!LO:TX:t=Gradu\nale	!	!	!	!	!	!	!	!
!LO:TX:t=P:problem=przed kluczem inicjał A	!	!	!LO:TX:t=P:problem=przed kluczem inicjał A	!	!	!LO:TX:t=P:problem=przed kluczem inicjał A	!	!LO:TX:t=P:problem=przed kluczem inicjał A	!	!LO:TX:t=P:problem=przed kluczem inicjał A	!
2.D/	Al-	.	1F	Al-	.	1d	Al-	2.f\	Al-	1a	Al-
!	!	!	!	!	!	!	!	!LO:TX:t=P:problem=4\right&colon; global	!	!	!
4C/	.	.	.	.	.	.	.	4e\	.	.	.
*	*	*	*lig	*	*	*	*	*	*	*	*
!	!	!	!	!	!	!	!	!	!	!LO:TX:t=P:problem=4\right&colon; global	!
2BB-/	.	.	1G	-le-	.	2.d\	-le-	2d\	.	4b-\	-le-
.	.	.	.	.	.	.	.	.	.	4a\	.
2GG/	-le-	.	.	.	.	.	.	1g\	-le-	4b-\	.
.	.	.	.	.	.	8c\L	.	.	.	4cc\	.
.	.	.	.	.	.	8B-\J	.	.	.	.	.
=2-	=2-	=2-	=2-	=2-	=2-	=2-	=2-	=2-	=2-	=2-	=2-
*	*	*	*	*	*	*	*	*	*	*2\right	*
1D	-lu-	.	1A	.	.	1A	.	.	.	2.dd\	.
.	.	.	.	.	.	.	.	2f\	-lu-	.	.
.	.	.	.	.	.	.	.	.	.	4cc\	.
*	*	*	*Xlig	*	*	*	*	*	*	*	*
*	*	*	*lig	*	*	*	*	*	*	*	*
1GG	-ia	.	1B-	.	.	2G/	.	1g	-ia	4b-\	.
.	.	.	.	.	.	.	.	.	.	4a\	.
.	.	.	.	.	.	4D/	.	.	.	1g/	.
.	.	.	.	.	.	4E/	.	.	.	.	.
=3-	=3-	=3-	=3-	=3-	=3-	=3-	=3-	=3-	=3-	=3-	=3-
*	*ij	*	*	*	*	*	*	*	*ij	*	*
1D	Al-	.	1A	.	.	4F/	.	1d	Al-	.	.
.	.	.	.	.	.	4G/	.	.	.	.	.
.	.	.	.	.	.	2A/	.	.	.	2f/	-lu-
*	*	*	*Xlig	*	*	*	*	*	*	*	*
*	*	*	*lig	*	*	*	*	*	*	*	*
2.GG/	-le-	.	1B-	.	.	2G/	-lu-	1.d	-le-	1g	-ia
.	.	.	.	.	.	1D/	-ia	.	.	.	.
4AA/	.	.	.	.	.	.	.	.	.	.	.
=4-	=4-	=4-	=4-	=4-	=4-	=4-	=4-	=4-	=4-	=4-	=4-
2BB-/	.	.	1G	.	.	.	.	.	.	2re	.
*	*	*	*	*	*	*	*ij	*	*	*	*ij
2C/	.	.	.	.	.	2E/	Al-	2.c/	.	2g/	Al-
*	*	*	*Xlig	*	*	*lig	*	*	*	*	*
1AA	-lu-	.	1F	-lu-	.	1C	-le-	.	.	2a\	-le-
.	.	.	.	.	.	.	.	4B-/	.	.	.
.	.	.	.	.	.	.	.	2A/	.	1cc\	.
=5-	=5-	=5-	=5-	=5-	=5-	=5-	=5-	=5-	=5-	=5-	=5-
1GG	-ia	.	1G	-ia	.	1D	.	1d	.	.	.
.	.	.	.	.	.	.	.	.	.	2b-\	.
*	*Xij	*	*lig	*	*	*Xlig	*	*	*	*	*
1rD	.	.	1c	.	.	1C	-lu-	1e	.	4a\	.
.	.	.	.	.	.	.	.	.	.	4g\	.
.	.	.	.	.	.	.	.	.	.	1g/	.
=6-	=6-	=6-	=6-	=6-	=6-	=6-	=6-	=6-	=6-	=6-	=6-
2rBB	.	.	1A	.	.	1D	-ia	1.d	-lu-	.	.
2D/	al-	.	.	.	.	.	.	.	.	2f/	-lu-
*	*	*	*Xlig	*	*	*	*Xij	*	*	*	*
*	*	*	*lig	*	*	*	*	*	*	*	*
1G	-le-	.	1B-	.	.	1rF	.	.	.	2g/	-ia
*	*	*	*	*	*	*	*	*	*	*	*Xij
.	.	.	.	.	.	.	.	2e\	.	1b-\	Al-
=7-	=7-	=7-	=7-	=7-	=7-	=7-	=7-	=7-	=7-	=7-	=7-
1F	-lu-	.	1c	.	.	2rF	.	1f	-ia	.	.
.	.	.	.	.	.	1F	Al-	.	.	2a\	.
*	*	*	*Xlig	*	*	*	*	*	*Xij	*	*
2.BB-/	-ia	.	1B-	.	.	.	.	1d	Al-	2b-\	-le-
.	.	.	.	.	.	2F/	.	.	.	2.f/	.
4C/	.	.	.	.	.	.	.	.	.	.	.
=8-	=8-	=8-	=8-	=8-	=8-	=8-	=8-	=8-	=8-	=8-	=8-
*	*ij	*	*lig	*	*	*	*	*	*	*	*
1.D	al-	.	1A	.	.	2.F/	-le-	2d\	-le-	.	.
.	.	.	.	.	.	.	.	.	.	4g/	.
.	.	.	.	.	.	.	.	2.f\	.	1a	.
.	.	.	.	.	.	4G/	.	.	.	.	.
.	.	.	1F	.	.	2A/	-lu-	.	.	.	.
.	.	.	.	.	.	.	.	4e\	.	.	.
2BB-/	-le-	.	.	.	.	2D/	-ia	1d\	.	2.b-\	.
*	*	*	*Xlig	*	*	*	*	*	*	*	*
=9-	=9-	=9-	=9-	=9-	=9-	=9-	=9-	=9-	=9-	=9-	=9-
1E-	-lu-	.	1G	.	.	1G	.	.	.	.	.
.	.	.	.	.	.	.	.	.	.	4a\	.
!	!	!	!	!	!	!	!	!LO:LB:g=original	!	!LO:LB:g=original	!
.	.	.	.	.	.	.	.	2.c/	.	1g	.
*	*	*	*lig	*	*	*	*	*	*	*	*
1D	-ia	.	1d	.	.	1A	.	.	.	.	.
.	.	.	.	.	.	.	.	4d\	.	.	.
.	.	.	.	.	.	.	.	4e\	.	2f/	-lu-
.	.	.	.	.	.	.	.	4f\	.	.	.
=10-	=10-	=10-	=10-	=10-	=10-	=10-	=10-	=10-	=10-	=10-	=10-
0rD	.	.	1c	.	.	0r	.	2d\	.	2g/	-ia
*	*	*	*	*	*	*	*	*	*	*	*ij
.	.	.	.	.	.	.	.	2.a\	.	2.cc\	Al-
*	*	*	*Xlig	*	*	*	*	*	*	*	*
*	*	*	*lig	*	*	*	*	*	*	*	*
.	.	.	1e-X	.	.	.	.	.	.	.	.
.	.	.	.	.	.	.	.	4g\	.	4b-\	-le-
.	.	.	.	.	.	.	.	1g\	.	4a\	-lu-
.	.	.	.	.	.	.	.	.	.	4g\	.
=11-	=11-	=11-	=11-	=11-	=11-	=11-	=11-	=11-	=11-	=11-	=11-
*	*	*	*	*	*	*	*ij	*	*	*	*
1rD	.	.	1d	.	.	1D	Al-	.	.	1a	-ia
.	.	.	.	.	.	.	.	2f\	-lu-	.	.
*	*	*	*Xlig	*	*	*	*	*	*	*	*Xij
*	*	*	*lig	*	*	*	*	*	*	*	*
1C	al-	.	1c	.	.	1E	.	2g\	-ia	2re	.
*	*	*	*	*	*	*	*	*	*ij	*	*
.	.	.	.	.	.	.	.	4G/	Al-	2g/	Al-
.	.	.	.	.	.	.	.	4A/	.	.	.
=12-	=12-	=12-	=12-	=12-	=12-	=12-	=12-	=12-	=12-	=12-	=12-
*	*	*	*custos:A	*	*	*	*	*	*	*	*
!	!	!	!	!	!	!LO:LB:g=original	!	!	!	!	!
4GG/	-le-	.	1B-	.	.	2D/	.	4B-/	.	1dd	-le-
4AA/	.	.	.	.	.	.	.	4c/	.	.	.
4BB-/	.	.	.	.	.	1G	-le-	4d\	.	.	.
4C/	.	.	.	.	.	.	.	4e\	.	.	.
*lig	*	*	*Xlig	*	*	*	*	*	*	*	*
*	*	*	*lig	*	*	*	*	*	*	*	*
!LO:LB:g=original	!	!	!LO:PB:g=original	!	!	!	!	!	!	!	!
1D	.	.	1A	.	.	.	.	4d\	.	2.dd\	.
.	.	.	.	.	.	.	.	4A/	.	.	.
.	.	.	.	.	.	2F/	-lu-	2.d\	-le-	.	.
.	.	.	.	.	.	.	.	.	.	4cc\	.
=13-	=13-	=13-	=13-	=13-	=13-	=13-	=13-	=13-	=13-	=13-	=13-
1E-	.	.	1G	.	.	1G	-ia	.	.	4b-\	.
*	*	*	*	*	*	*	*Xij	*	*	*	*
.	.	.	.	.	.	.	.	4c\	.	4a\	.
.	.	.	.	.	.	.	.	2c\	.	1g	.
*Xlig	*	*	*Xlig	*	*	*	*	*	*	*	*
*lig	*	*	*lig	*	*	*	*	*	*	*	*
1D	-lu-	.	1A	.	.	0r	.	1d	-lu-	.	.
.	.	.	.	.	.	.	.	.	.	2f/	-lu-
=14-	=14-	=14-	=14-	=14-	=14-	=14-	=14-	=14-	=14-	=14-	=14-
1C	.	.	1c	.	.	.	.	1e	.	2g\	-ia
*	*	*	*	*	*	*	*	*	*	*	*ij
.	.	.	.	.	.	.	.	.	.	2.a\	Al-
*Xlig	*	*	*Xlig	*	*	*	*	*	*	*	*
1GG	-ia	.	1B-	.	.	2.D/	Al-	0.d	-ia	.	.
*	*Xij	*	*	*	*	*	*	*	*Xij	*	*
.	.	.	.	.	.	.	.	.	.	4g\	.
.	.	.	.	.	.	.	.	.	.	1g/	-le-
.	.	.	.	.	.	4E/	.	.	.	.	.
=15-	=15-	=15-	=15-	=15-	=15-	=15-	=15-	=15-	=15-	=15-	=15-
*	*	*	*lig	*	*	*	*	*	*	*	*
1.D	al-	.	1A	.	.	4F/	.	.	.	.	.
.	.	.	.	.	.	4G/	.	.	.	.	.
.	.	.	.	.	.	2.A/	.	.	.	1f	.
.	.	.	1F	.	.	.	.	.	.	.	.
.	.	.	.	.	.	4D/	.	.	.	.	.
2BB-/	-le-	.	.	.	.	1d	-le-	.	.	2.b-\	.
*	*	*	*Xlig	*	*	*	*	*	*	*	*
=16-	=16-	=16-	=16-	=16-	=16-	=16-	=16-	=16-	=16-	=16-	=16-
*	*	*	*lig	*	*	*	*	*	*	*	*
1E-	-lu-	.	1G	.	.	.	.	2rA	.	.	.
.	.	.	.	.	.	.	.	.	.	4a\	.
.	.	.	.	.	.	2c\	-lu-	2G/	Al-	1g	.
1D	.	.	1A	.	.	2d\	-ia	1.d	-le-	.	.
*	*	*	*	*	*	*	*ij	*	*	*	*
.	.	.	.	.	.	1D	Al-	.	.	2f/	.
*	*	*	*Xlig	*	*	*	*	*	*	*	*
=17-	=17-	=17-	=17-	=17-	=17-	=17-	=17-	=17-	=17-	=17-	=17-
*	*	*	*lig	*	*	*	*	*	*	*	*
1GG	-ia	.	1B-	.	.	.	.	.	.	1g	.
.	.	.	.	.	.	1G	.	2d\	-lu-	.	.
*	*ij	*	*	*	*	*	*	*	*	*	*
1D	al-	.	1A	.	.	.	.	1d	-ia	2d/	.
.	.	.	.	.	.	2F/	.	.	.	2.dd\	.
*	*	*	*Xlig	*	*	*	*	*	*	*	*
=18-	=18-	=18-	=18-	=18-	=18-	=18-	=18-	=18-	=18-	=18-	=18-
*	*	*	*lig	*	*	*	*	*	*	*	*
2.G\	-le-	.	1B-	.	.	2G/	.	2r	.	.	.
.	.	.	.	.	.	.	.	.	.	4cc\	.
.	.	.	.	.	.	2.G/	-le-	2d\	/Al-	4b-\	.
4F\	.	.	.	.	.	.	.	.	.	4a\	.
!	!	!	!	!	!	!	!	!LO:SIC:v:s=1e-	!	!LO:LB:g=original	!
2E-\	.	.	1G	.	.	.	.	1e	-le-	2b-\	.
.	.	.	.	.	.	4F/	.	.	.	.	.
2C/	.	.	.	.	.	2E-X/	.	.	.	2cc\	.
*	*	*	*Xlig	*	*	*	*	*	*	*	*
=19-	=19-	=19-	=19-	=19-	=19-	=19-	=19-	=19-	=19-	=19-	=19-
1D	.	.	1F	.	.	1F	.	2.d\	.	1a	.
.	.	.	.	.	.	.	.	4c/	.	.	.
*lig	*	*	*	*	*	*lig	*	*	*	*	*
1GG	-lu-	.	1%5G;<	.	.	1D	-lu-	4B-/	.	2g\	.
.	.	.	.	.	.	.	.	4A/	.	.	.
!	!	!	!	!	!	!	!	!LO:LB:g=original	!	!	!
.	.	.	.	.	.	.	.	1d\	.	2b-\	.
=20-	=20-	=20-	=20-	=20-	=20-	=20-	=20-	=20-	=20-	=20-	=20-
1C	.	.	.	.	.	1Eny	.	.	.	2g\	.
.	.	.	.	.	.	.	.	2c/	-lu-	1cc	.
*Xlig	*	*	*	*	*	*Xlig	*	*	*	*	*
0.GG;	-ia	.	.	.	.	0.D	-ia	0.d	-ia/	.	.
*	*Xij	*	*	*	*	*	*Xij	*	*	*	*
.	.	.	.	.	.	.	.	.	.	4b-\	-lu-
.	.	.	.	.	.	.	.	.	.	4a\	.
!	!	!	!	!	!	!	!	!	!	!LO:N:acc=#	!
.	.	.	.	.	.	.	.	.	.	0bn	-ia
*	*	*	*	*	*	*	*	*	*	*	*Xij
=21||	=21||	=21||	=21||	=21||	=21||	=21||	=21||	=21||	=21||	=21||	=21||
*k[b-e-]	*	*	*k[b-]	*	*	*k[b-]	*	*k[b-]	*	*k[b-]	*
*M2/1	*	*	*M2/1	*	*	*M2/1	*	*M2/1	*	*M2/1	*
*met(C|)	*	*	*met(C|)	*	*	*met(C)	*	*met(C|)	*	*met(C|)	*
*	*	*	*lig	*	*	*	*	*	*	*	*
!LO:TX:t=P:problem=przed kluczem inicjał A	!	!	!LO:TX:t=P:problem=przed kluczem inicjał A	!	!	!LO:TX:t=P:problem=przed kluczem inicjał A	!	!LO:TX:t=P:problem=przed kluczem inicjał A	!	!LO:TX:t=P:problem=przed kluczem inicjał A	!
!	!	!	!LO:SIC:v:l:s=Ve	!	!	!	!	!	!	!	!
00r	.	.	1F	AVe-	A-	2c\	A-	0r	.	00r	.
*	*	*	*	*	*	*lig	*	*	*	*	*
!	!	!	!	!	!	!LO:LB:g=original	!	!	!	!	!
.	.	.	.	.	.	1d	.	.	.	.	.
.	.	.	1G	.	.	.	.	.	.	.	.
.	.	.	.	.	.	1e\	.	.	.	.	.
*	*	*	*Xlig	*	*	*Xlig	*	*	*	*	*
=22-	=22-	=22-	=22-	=22-	=22-	=22-	=22-	=22-	=22-	=22-	=22-
*	*	*	*lig	*	*	*	*	*lig	*	*	*
.	.	.	1A	.	.	.	.	1c	A-	.	.
.	.	.	.	.	.	2.f\	.	.	.	.	.
.	.	.	1B-	.	.	.	.	1d	.	.	.
!	!	!	!	!	!	!LO:TX:t=P:problem=4\right&colon; global	!	!	!	!	!
.	.	.	.	.	.	4e\	.	.	.	.	.
.	.	.	.	.	.	2d\	.	.	.	.	.
*	*	*	*Xlig	*	*	*	*	*Xlig	*	*	*
=23-	=23-	=23-	=23-	=23-	=23-	=23-	=23-	=23-	=23-	=23-	=23-
1rD	.	.	1A	.	.	2c\	.	2e\	.	1rg	.
.	.	.	.	.	.	1d	.	2.f\	.	.	.
*lig	*	*	*lig	*	*	*	*	*	*	*lig	*
!LO:SIC:v:l:s=Ve	!	!	!	!	!	!	!	!	!	!	!
1BB-	Ave-	A-	1B-	.	.	.	.	.	.	1f	A-
.	.	.	.	.	.	.	.	4e\	.	.	.
!	!	!	!	!	!	!LO:SIC:v:l:s=ve	!	!	!	!	!
.	.	.	.	.	.	1B-\	-ue	4d\	.	.	.
.	.	.	.	.	.	.	.	4c/	.	.	.
=24-	=24-	=24-	=24-	=24-	=24-	=24-	=24-	=24-	=24-	=24-	=24-
!LO:SIC:v:l:s=ve	!	!	!	!	!	!	!	!	!	!	!
1E-	.	ue	1G	.	.	.	.	2B-/	.	1g	.
!	!	!	!	!	!	!	!	!LO:SIC:v:l:s=ve	!	!	!
.	.	.	.	.	.	2c\	Vir-	2G/	ue	.	.
*Xlig	*	*	*Xlig	*	*	*	*	*	*	*Xlig	*
1D	.	Vir-	1F	.	.	2A/	.	2d,<\	.	1a	.
.	.	.	.	.	.	1D/	.	2.d\	Vir-	.	.
=25-	=25-	=25-	=25-	=25-	=25-	=25-	=25-	=25-	=25-	=25-	=25-
!	!	!	!LO:SIC:v:l:s=ve	!	!	!	!	!	!	!	!
1GG	-ni	-go	1G	-ni	-ue	.	.	.	.	2b-\	.
.	.	.	.	.	.	.	.	4c/	.	.	.
.	.	.	.	.	.	2D/	-go	2.B-/	.	2g\	.
!	!	!	!	!	!	!	!	!	!	!LO:SIC:v:l:s=ve	!
2rGG	.	.	1G	San-	Vir-	2G/	Ma-	.	.	1dd	-ue
.	.	.	.	.	.	.	.	4A/	.	.	.
2GG/	san-	Ma-	.	.	.	2B-\	.	2G/	.	.	.
=26-	=26-	=26-	=26-	=26-	=26-	=26-	=26-	=26-	=26-	=26-	=26-
*	*	*	*lig	*	*	*	*	*	*	*	*
2.D/	.	-ri-	1A	-cte	.	4A/	.	2F/	.	2re	.
.	.	.	.	.	.	4G/	.	.	.	.	.
.	.	.	.	.	.	4F/	.	2.A/	.	1d	A-
4C/	-cte	.	.	.	.	4E/	.	.	.	.	.
*	*	*	*custos:c	*	*	*	*	*	*	*	*
!LO:LB:g=original	!	!	!	!	!	!	!	!	!	!	!
2BB-/	spi-	.	1B-	.	.	2D/	.	.	.	.	.
.	.	.	.	.	.	.	.	4G/	.	.	.
!	!	!	!	!	!	!	!	!	!	!LO:SIC:v:l:s=ve	!
4AA/	.	.	.	.	.	2G/	.	1G/	.	2d/	-ue
4GG/	.	.	.	.	.	.	.	.	.	.	.
*	*	*	*Xlig	*	*	*	*	*	*	*	*
=27-	=27-	=27-	=27-	=27-	=27-	=27-	=27-	=27-	=27-	=27-	=27-
!	!	!	!LO:LB:g=original	!	!	!	!	!	!	!	!
0AA	-ri-	.	1c	.	-go	0C	-ri-	.	.	1.a	Vir-
.	.	.	.	.	.	.	.	4F/	.	.	.
.	.	.	.	.	.	.	.	4E/	.	.	.
*	*	*	*lig	*	*	*	*	*	*	*	*
.	.	.	1c	Spi-	Ma-	.	.	1F	-go	.	.
.	.	.	.	.	.	.	.	.	.	2a\	-go
=28-	=28-	=28-	=28-	=28-	=28-	=28-	=28-	=28-	=28-	=28-	=28-
1GG	-t(us)	-a	1B-	.	.	2D/	-a	2G/	Ma-	2b-\	Ma-
.	.	.	.	.	.	2d\	Vir-	2B-/	-ri-	1g	.
*	*	*	*Xlig	*	*	*	*	*	*	*	*
*	*	*	*lig	*	*	*	*	*	*	*	*
!	!	!	!	!	!	!	!	!LO:LB:g=original	!	!	!
1rD	.	.	1c	.	.	2e\	-go	1A	.	.	.
.	.	.	.	.	.	2c\	Ma-	.	.	2f/	-ri-
=29-	=29-	=29-	=29-	=29-	=29-	=29-	=29-	=29-	=29-	=29-	=29-
!	!	!	!	!	!	!	!	!	!	!LO:LB:g=original	!
2r	.	.	1B-	.	.	1d	.	2G/	-a	2g/	-a
*	*ij	*	*	*	*	*	*	*	*	*	*
2G\	san-	cae-	.	.	.	.	.	1g	Vir-	1b-	a-
*	*	*	*Xlig	*	*	*	*	*	*	*	*
*	*	*	*lig	*	*	*	*	*	*	*	*
!	!	!	!	!	!	!LO:SIC:v:s=2e-	!	!	!	!	!
2E-\	-cte	-li	1G	.	.	2e\	.	.	.	.	.
!	!	!	!	!	!	!LO:SIC:v:s=2e-	!	!	!	!LO:SIC:v:l:s=ve	!
2C/	spi-	re-	.	.	.	2e\	.	2g\	-go	2cc\	-ue
=30-	=30-	=30-	=30-	=30-	=30-	=30-	=30-	=30-	=30-	=30-	=30-
1G	-ri-	-gi-	1B-	.	.	1.d	.	2g\	Ma-	2dd\	Vir-
.	.	.	.	.	.	.	.	2g\	-ri-	2g/	-go
*	*	*	*Xlig	*	*	*	*	*	*	*	*
*	*	*	*lig	*	*	*	*	*	*	*	*
0D	-t(us)	-na	1A	.	.	.	.	0f	-a	0dd	Ma-
*	*Xij	*	*	*	*	*	*	*	*	*	*
.	.	.	.	.	.	4c\	ri-	.	.	.	.
.	.	.	.	.	.	4B-\	.	.	.	.	.
=31-	=31-	=31-	=31-	=31-	=31-	=31-	=31-	=31-	=31-	=31-	=31-
!	!	!	!	!	!	!LO:LB:g=original	!	!	!	!	!
.	.	.	1F	.	.	1A	-a	.	.	.	.
*	*	*ij	*Xlig	*	*	*	*	*	*	*lig	*
2.E-\	re-	cae-	1G	-ri-	-ri-	2.G/	Vir-	1r	.	1b-	.
4D\	.	.	.	.	.	4F/	.	.	.	.	.
=32-	=32-	=32-	=32-	=32-	=32-	=32-	=32-	=32-	=32-	=32-	=32-
*	*	*	*	*	*	*	*	*lig	*	*	*
1C	.	-li	1G	-t(us)	-a	4E/	.	1c	Cae-	1cc	.
.	.	.	.	.	.	4D/	.	.	.	.	.
.	.	.	.	.	.	2E/	.	.	.	.	.
*	*	*	*	*	*	*	*	*	*	*Xlig	*
1BB-	-ple	re-	1B-	re-	cae-	2F/	-go	1d	.	2f/	.
.	.	.	.	.	.	2D/	Ma-	.	.	1g/	.
*	*	*	*	*	*	*	*	*Xlig	*	*	*
=33-	=33-	=33-	=33-	=33-	=33-	=33-	=33-	=33-	=33-	=33-	=33-
*	*	*	*lig	*	*	*	*	*	*	*	*
2C/	tu-	-gi-	1A	-ple	.	2E/	-ri-	2c/	.	.	.
2D/	-o-	.	.	.	.	2F/	.	2A/	.	2f/	-ri-
1GG	-rum	-na	1G	.	.	1D	-a	2B-/	.	1g	-a
.	.	.	.	.	.	.	.	2.d\	.	.	.
*	*	*Xij	*Xlig	*	*	*	*	*	*	*	*
=34-	=34-	=34-	=34-	=34-	=34-	=34-	=34-	=34-	=34-	=34-	=34-
*	*ij	*	*	*	*	*	*	*	*	*	*
1D	re-	mun-	1F	.	.	2r	.	.	.	0r	.
.	.	.	.	.	.	.	.	4c/	.	.	.
.	.	.	.	.	.	2d\	Cae-	4B-/	.	.	.
.	.	.	.	.	.	.	.	4A/	.	.	.
1E-	.	.	1G	.	-li	2d\	-li	2G/	-li	.	.
.	.	.	.	.	.	2c\	Re-	1g\	Re-	.	.
=35-	=35-	=35-	=35-	=35-	=35-	=35-	=35-	=35-	=35-	=35-	=35-
*	*	*	*lig	*	*	*	*	*	*	*	*
1D	.	.	1A	.	re-	2.d\	.	.	.	2r	.
.	.	.	.	.	.	.	.	2f\	-gi-	2dd\	Cae-
.	.	.	.	.	.	4c\	.	.	.	.	.
2GG/	-ple	-di	1B-	.	.	2B-\	.	1g	-na	2dd\	-li
2G\	tu-	Mun-	.	.	.	2G/	.	.	.	2dd\	Re-
*	*	*	*Xlig	*	*	*	*	*	*	*	*
=36-	=36-	=36-	=36-	=36-	=36-	=36-	=36-	=36-	=36-	=36-	=36-
2G\	-o-	-di	1G	.	-gi-	1d	.	2re	.	1b-	.
2G\	-rum	et	.	.	.	.	.	2g\	Cae-	.	.
!	!	!	!	!	!	!LO:SIC:v:s=1e-	!	!	!	!	!
1E-	re-	.	1G	tu-	-na	1e	-gi-	[>2g\	-li	4g\	.
.	.	.	.	.	.	.	.	.	.	4a\	.
.	.	.	.	.	.	.	.	2g]	.	4b-\	.
.	.	.	.	.	.	.	.	.	.	4cc\	.
=37-	=37-	=37-	=37-	=37-	=37-	=37-	=37-	=37-	=37-	=37-	=37-
*	*	*	*lig	*	*	*	*	*	*	*	*
2.BB-/	-ple	Do-	1B-	-o-	mun-	1d	-na	1.f	Re-	2dd\	-gi-
.	.	.	.	.	.	.	.	.	.	2dd\	-na
4C/	.	.	.	.	.	.	.	.	.	.	.
4D\	.	.	1A	.	.	1r	.	.	.	2dd\	Mun-
4E-\	.	.	.	.	.	.	.	.	.	.	.
2F\	tu-	.	.	.	.	.	.	2f\	-gi-	2cc\	-di
*	*	*	*Xlig	*	*	*	*	*	*	*	*
=38-	=38-	=38-	=38-	=38-	=38-	=38-	=38-	=38-	=38-	=38-	=38-
*	*	*	*lig	*	*	*	*	*	*	*	*
1G	-o-	.	1B-	.	.	2r	.	1d	-na	2b-\	.
.	.	.	.	.	.	1G	Cae-	.	.	2dd\	et
0C	-rum	.	1c	.	.	.	.	0e	.	2.cc\	Do-
*	*Xij	*	*	*	*	*	*	*	*	*	*
.	.	.	.	.	.	2G/	-li	.	.	.	.
.	.	.	.	.	.	.	.	.	.	4b-\	.
*	*	*	*Xlig	*	*	*	*	*	*	*	*
=39-	=39-	=39-	=39-	=39-	=39-	=39-	=39-	=39-	=39-	=39-	=39-
.	.	.	1c	-ru(m)	-di	1E	Re-	.	.	4a\	.
.	.	.	.	.	.	.	.	.	.	4g\	.
!	!	!	!	!	!	!	!	!	!	!LO:LB:g=original	!
.	.	.	.	.	.	.	.	.	.	1g	-mi-
1D	cor-	-mi-	1A	cor-	et	1F	.	2r	.	.	.
.	.	.	.	.	.	.	.	1d\	Mun-	2f/	.
=40-	=40-	=40-	=40-	=40-	=40-	=40-	=40-	=40-	=40-	=40-	=40-
*	*	*	*lig	*	*	*	*	*	*	*	*
!LO:LB:g=original	!	!	!	!	!	!	!	!	!	!	!
1GG	-da	-na	1G	-da	Do-	1D	-gi-	.	.	2g/	-na
.	.	.	.	.	.	.	.	2d\	-di	1dd	Mun-
!	!	!	!	!	!	!	!	!LO:LB:g=original	!	!	!
2rBB	.	.	1B-	.	.	1G	-na	4G/	et	.	.
.	.	.	.	.	.	.	.	4A/	.	.	.
1G\	cor-	Su-	.	.	.	.	.	4B-/	.	2dd\	-di
.	.	.	.	.	.	.	.	4c/	.	.	.
*	*	*	*Xlig	*	*	*	*	*	*	*	*
=41-	=41-	=41-	=41-	=41-	=41-	=41-	=41-	=41-	=41-	=41-	=41-
.	.	.	1B-	fi-	-mi-	2rF	.	4d\	.	4g\	et
.	.	.	.	.	.	.	.	4G/	.	4a\	.
2G\	-da	-ſci-	.	.	.	1d	Mun-	1g	Do-	4b-\	.
.	.	.	.	.	.	.	.	.	.	4cc\	.
*	*	*	*lig	*	*	*	*	*	*	*	*
1D	fi-	-pe	1A	-de-	-na	.	.	.	.	4dd\	.
.	.	.	.	.	.	.	.	.	.	4ee\	.
.	.	.	.	.	.	2d\	-di	2f\	-mi-	2.dd\	.
=42-	=42-	=42-	=42-	=42-	=42-	=42-	=42-	=42-	=42-	=42-	=42-
!	!	!	!	!	!	!LO:LB:g=original	!	!	!	!	!
1.G	-de-	tu-	1B-	.	.	4G\	et	0g	-na	.	.
.	.	.	.	.	.	4A\	.	.	.	4cc\	.
.	.	.	.	.	.	4B-\	.	.	.	4b-\	.
.	.	.	.	.	.	4c\	.	.	.	4a\	.
*	*	*	*Xlig	*	*	*	*	*	*	*	*
!	!	!	!LO:LB:g=original	!	!	!	!	!	!	!	!
.	.	.	1G	.	.	2d\	.	.	.	(2b-\	Do-
2C/	-li-	-o-	.	.	.	2e\	Do-	.	.	2cc\)	.
=43-	=43-	=43-	=43-	=43-	=43-	=43-	=43-	=43-	=43-	=43-	=43-
*	*	*	*lig	*	*	*	*	*	*	*	*
1D	-u(m)	-rum	1F	-li-	.	1d	mi-	2re	.	1a	-mi-
.	.	.	.	.	.	.	.	1d	ſu-	.	.
2r	.	.	1G	.	.	1B-	-na	.	.	1g	-na
*	*	*ij	*	*	*	*	*	*	*	*	*
2G\	et	Su-	.	.	.	.	.	2d\	-ſci-	.	.
*	*	*	*Xlig	*	*	*	*	*	*	*	*
=44-	=44-	=44-	=44-	=44-	=44-	=44-	=44-	=44-	=44-	=44-	=44-
!	!	!	!	!	!	!	!	!LO:SIC:v:s=2e-	!	!	!
2C/	tu-	.	1G	-um	Su-	1c	.	2e\	-pe	2re	.
2E-\	-i	ſci-	.	.	.	.	.	2c/	tu-	1g	ſu-
1D	a-	-pe	1A	et	-ſci-	1r	.	1d	-o-	.	.
.	.	.	.	.	.	.	.	.	.	2f/	-ſci-
=45-	=45-	=45-	=45-	=45-	=45-	=45-	=45-	=45-	=45-	=45-	=45-
1C	-mo-	tu-	1c	tu-	-pe	2r	.	1e	-rum	1g	-pe
.	.	.	.	.	.	2G/	Mun-	.	.	.	.
*	*	*	*lig	*	*	*	*	*	*	*	*
2F\	-ris	-o-	1c	-i	.	2F/	-di	2r	.	2a\	ſu-
2E-\	.	.	.	.	.	2G/	et	2c/	tu-	2g/	-ſci-
=46-	=46-	=46-	=46-	=46-	=46-	=46-	=46-	=46-	=46-	=46-	=46-
0D	.	-rum	1d	.	.	0A	.	2.f\	-o-	2f/	-pe
*	*	*Xij	*	*	*	*	*	*	*	*	*
.	.	.	.	.	.	.	.	.	.	2dd\	tu-
.	.	.	.	.	.	.	.	4g\	.	.	.
*	*	*	*Xlig	*	*	*	*	*	*	*	*
.	.	.	1d	a-	tu-	.	.	4f\	.	2.ff\	-o-
.	.	.	.	.	.	.	.	4e\	.	.	.
.	.	.	.	.	.	.	.	4d\	.	.	.
.	.	.	.	.	.	.	.	4c\	.	4ee\	.
=47-	=47-	=47-	=47-	=47-	=47-	=47-	=47-	=47-	=47-	=47-	=47-
*	*ij	*	*lig	*	*	*	*	*	*	*	*
1.BB-	et	lau-	1f	-mo-	-o-	1.B-	Do-	1d	-rum	4dd\	.
.	.	.	.	.	.	.	.	.	.	4cc\	.
.	.	.	.	.	.	.	.	.	.	1dd	.
.	.	.	1e-X	.	.	.	.	2re	.	.	.
2C/	tu-	.	.	.	.	4A/	-mi-	2e\	lau-	2.cc\	.
.	.	.	.	.	.	4G/	.	.	.	.	.
*	*	*	*Xlig	*	*	*	*	*	*	*	*
=48-	=48-	=48-	=48-	=48-	=48-	=48-	=48-	=48-	=48-	=48-	=48-
2D/	-i	.	1d	.	.	1F	-na	1f	-des	.	.
.	.	.	.	.	.	.	.	.	.	4b-\	.
!	!	!	!	!	!	!	!	!	!	!LO:LB:g=original	!
2BB-/	a-	.	.	.	.	.	.	.	.	1b-	.
0F	-mo-	-des	0c	.	.	1rA	.	2f\	de-	.	.
!	!	!	!	!	!	!	!	!LO:SIC:v:l:s=vo	!	!	!
.	.	.	.	.	.	.	.	2f\	-uo-	4a\	.
.	.	.	.	.	.	.	.	.	.	4g\	.
=49-	=49-	=49-	=49-	=49-	=49-	=49-	=49-	=49-	=49-	=49-	=49-
.	.	.	.	.	.	2rF	.	1f	-tas	1a	.
.	.	.	.	.	.	1F	ſu-	.	.	.	.
*	*	*	*lig	*	*	*	*	*	*	*	*
2.BB-/	.	de-	1B-	.	.	.	.	2d\	de-	2b-\	.
!	!	!	!	!	!	!	!	!LO:SIC:v:l:s=vo	!	!	!
.	.	.	.	.	.	1D/	-ſci-	1d\	-uo-	1g/	.
4C/	.	.	.	.	.	.	.	.	.	.	.
=50-	=50-	=50-	=50-	=50-	=50-	=50-	=50-	=50-	=50-	=50-	=50-
*lig	*	*	*	*	*	*	*	*	*	*	*
1D	.	.	1A,<	.	.	.	.	.	.	.	.
.	.	.	.	.	.	1d	-pe	2d\	-tas	2f/	.
*	*	*	*Xlig	*	*	*	*	*	*	*	*
1E-	.	.	1G	.	-rum	.	.	2G/	.	1g	-rum
.	.	.	.	.	.	2c\	tu-	1g\	ſer-	.	.
*Xlig	*	*	*	*	*	*	*	*	*	*	*
=51-	=51-	=51-	=51-	=51-	=51-	=51-	=51-	=51-	=51-	=51-	=51-
!LO:SIC:v:l:s=vo	!	!	!	!	!	!	!	!	!	!	!
*	*	*	*lig	*	*	*	*	*	*	*	*
1D	.	-uo-	1A	.	.	0d	-o-	.	.	1rg	.
!	!	!	!	!	!	!	!	!LO:SIC:v:l:s=vo	!	!	!
.	.	.	.	.	.	.	.	2f\	-uo-	.	.
!	!	!	!	!	!	!	!	!LO:LB:g=original	!	!	!
2GG/	-ris	-tas	1B-	.	.	.	.	1g	-rum	2re	.
2E-\	et	lau-	.	.	.	.	.	.	.	1g/	lau-
*	*	*	*Xlig	*	*	*	*	*	*	*	*
=52-	=52-	=52-	=52-	=52-	=52-	=52-	=52-	=52-	=52-	=52-	=52-
*	*	*	*lig	*	*	*	*	*	*	*	*
2E-\	tu-	-des	1G	.	de-	1B-	-rum	2rA	.	.	.
2E-\	-i	De-	.	.	.	.	.	2G/	ser-	2g/	-des
!LO:SIC:v:l:s=vo	!	!	!	!	!	!	!	!	!	!	!
*	*	*	*	*	*	*	*	*lig	*	*	*
!	!	!	!	!	!	!	!	!LO:SIC:v:l:s=vo	!	!	!
1D	a-	-uo-	1F	.	.	0r	.	1d	-uo-	2a\	de-
!	!	!	!	!	!	!	!	!	!	!LO:SIC:v:l:s=vo	!
.	.	.	.	.	.	.	.	.	.	2b-\	-uo-
*	*	*	*Xlig	*	*	*	*	*	*	*	*
=53-	=53-	=53-	=53-	=53-	=53-	=53-	=53-	=53-	=53-	=53-	=53-
*	*	*	*lig	*	*	*	*	*	*	*	*
!	!	!	!LO:SIC:v:l:s=vo	!	!	!	!	!	!	!	!
1C	-mo-	.	1G	.	-uo-	.	.	1e	.	1cc	.
*	*	*	*	*	*	*	*	*Xlig	*	*	*
1BB-	-ris	.	1B-	.	.	2rF	.	00d	-rum	1f	-tas
*	*	*	*	*	*	*	*ij	*	*	*	*
.	.	.	.	.	.	2F/	ſu-	.	.	.	.
*	*Xij	*	*Xlig	*	*	*	*	*	*	*	*
=54-	=54-	=54-	=54-	=54-	=54-	=54-	=54-	=54-	=54-	=54-	=54-
1GG	in	-tas	1B-	-ris	-tas	2G/	-ſci-	.	.	2re	.
.	.	.	.	.	.	2G/	-pe	.	.	2d/	ſer-
*	*	*	*lig	*	*	*	*	*	*	*	*
!LO:LB:g=original	!	!	!	!	!	!	!	!	!	!LO:SIC:v:l:s=vo	!
1.D	e-	Ser-	1A	in	lau-	2.F/	tu-	.	.	2.f/	-uo-
.	.	.	.	.	.	4E/	.	.	.	4g/	.
=55-	=55-	=55-	=55-	=55-	=55-	=55-	=55-	=55-	=55-	=55-	=55-
!	!	!	!	!	!	!LO:LB:g=original	!	!	!	!	!
.	.	.	1F	.	.	2D/	.	.	.	2a\	.
2BB-/	-is	.	.	.	.	1d\	-o-	.	.	1b-	.
*	*ij	*	*Xlig	*	*	*	*	*	*	*	*
!LO:SIC:v:l:s=vo	!	!	!	!	!	!	!	!	!	!	!
1E-	et	-uo-	1G	e-	-des	.	.	1rc	.	.	.
.	.	.	.	.	.	2c\	.	.	.	4a\	.
.	.	.	.	.	.	.	.	.	.	4g\	.
=56-	=56-	=56-	=56-	=56-	=56-	=56-	=56-	=56-	=56-	=56-	=56-
*	*	*	*lig	*	*	*	*	*	*	*	*
1D	tu-	.	1A	.	.	2d,<\	-rum	2r	.	0f	-rum
*	*	*	*	*	*	*	*Xij	*	*	*	*
.	.	.	.	.	.	2D/	lau-	2d\	lau-	.	.
1BB-	-i	-rum	1B-	.	.	2F/	.	2d\	-des	.	.
.	.	.	.	.	.	2D/	-des	2f\	de-	.	.
*	*	*	*Xlig	*	*	*	*	*	*	*	*
=57-	=57-	=57-	=57-	=57-	=57-	=57-	=57-	=57-	=57-	=57-	=57-
*	*	*	*lig	*	*	*	*	*	*	*	*
!	!	!	!	!	!	!	!	!LO:SIC:v:l:s=vo	!	!	!
1C	a-	tu-	1G	.	Ser-	1E	.	1e	-uo-	1rg	.
2.D/	-mo-	-o-	1F	.	.	2.F/	de-	1d	-tas	1a	lau-
!	!	!	!	!	!	!LO:SIC:v:l:s=vo	!	!	!	!	!
4C/	.	.	.	.	.	4E/	-uo-	.	.	.	.
*	*	*	*Xlig	*	*	*	*	*	*	*	*
=58-	=58-	=58-	=58-	=58-	=58-	=58-	=58-	=58-	=58-	=58-	=58-
2BB-/	-ris	.	1G	-is	.	2D/	-tas	2r	.	2g/	-des
2C/	in	.	.	.	.	2E/	.	2c/	de-	2g/	de-
!	!	!	!LO:SIC:v:l:s=vo	!	!	!	!	!LO:SIC:v:l:s=vo	!	!LO:SIC:v:l:s=vo	!
1AA	e-	.	1F	i-	-uo-	1C	ſer-	2c/	-uo-	1a	-uo-
.	.	.	.	.	.	.	.	2c/	-tas	.	.
=59-	=59-	=59-	=59-	=59-	=59-	=59-	=59-	=59-	=59-	=59-	=59-
*	*	*	*	*	*	*lig	*	*	*	*	*
!	!	!	!LO:LB:g=original	!	!	!LO:SIC:v:l:s=vo	!	!	!	!	!
1GG	-is	-rum	1G	-gnem	-rum	1D	-uo-	4B-/	ſer-	2d/	-tas
*	*Xij	*	*	*	*	*	*	*	*	*	*
.	.	.	.	.	.	.	.	4A/	.	.	.
.	.	.	.	.	.	.	.	1d	.	2.b-\	ſer-
*	*	*	*lig	*	*	*	*	*	*	*	*
!	!	!	!	!	!	!LO:TX:t=P:problem=♭ przed ligaturą (?)	!	!	!	!	!
1rD	.	.	1G	ac-	tu-	1E-X	.	.	.	.	.
.	.	.	.	.	.	.	.	.	.	4a\	.
!	!	!	!	!	!	!	!	!LO:SIC:v:l:s=vo	!	!	!
!	!	!	!	!	!	!	!	!	!	!LO:PB:g=original	!
.	.	.	.	.	.	.	.	2c/	-uo-	1g/	.
*	*	*	*	*	*	*Xlig	*	*	*	*	*
=60-	=60-	=60-	=60-	=60-	=60-	=60-	=60-	=60-	=60-	=60-	=60-
2rBB	.	.	1A	.	.	0D	-rum	1.d	-rum	.	.
!	!	!	!	!	!	!	!	!	!	!LO:SIC:v:l:s=vo	!
2D/	i-	lau-	.	.	.	.	.	.	.	2f/	-uo-
*	*	*	*Xlig	*	*	*	*	*	*	*	*
*	*	*	*lig	*	*	*	*	*	*	*	*
2BB-/	gne(m)	-des	1B-	.	.	.	.	.	.	1g	-rum
2GG/	ac-	de-	.	.	.	.	.	1g\	de-	.	.
=61-	=61-	=61-	=61-	=61-	=61-	=61-	=61-	=61-	=61-	=61-	=61-
1D	-cen-	.	1A	.	.	0rG	.	.	.	2r	.
*	*	*	*	*	*	*	*	*	*	*	*ij
!	!	!	!	!	!	!	!	!LO:SIC:v:l:s=vo	!	!	!
.	.	.	.	.	.	.	.	2f\	-uo-	2.dd\	lau-
*	*	*	*Xlig	*	*	*	*	*	*	*	*
*	*	*	*lig	*	*	*	*	*	*	*	*
!LO:SIC:v:l:s=vo	!	!	!	!	!	!	!	!	!	!	!
2GG/	-de	-uo-	1B-	.	-o-	.	.	2g\	-tas	.	.
.	.	.	.	.	.	.	.	.	.	4cc\	.
*	*ij	*	*	*	*	*	*	*	*	*	*
2G\	i-	-tas	.	.	.	.	.	2d\	ſer-	4b-\	.
.	.	.	.	.	.	.	.	.	.	4a\	.
=62-	=62-	=62-	=62-	=62-	=62-	=62-	=62-	=62-	=62-	=62-	=62-
!	!	!	!	!	!	!	!	!LO:SIC:v:s=1e-	!	!	!
!	!	!	!	!	!	!	!	!LO:SIC:v:l:s=vo	!	!	!
2E-\	-gne(m)	.	1G	.	.	2r	.	1e	-uo-	2b-\	-des
2C/	ac-	Ser-	.	.	.	2G/	lau-	.	.	2cc\	de-
*	*	*	*Xlig	*	*	*	*	*	*	*	*
!	!	!	!	!	!	!	!	!	!	!LO:SIC:v:l:s=vo	!
1D	-cen-	.	1F	-cen-	.	2d\	.	0d	.	1a	-uo-
.	.	.	.	.	.	2A\	-des	.	.	.	.
=63-	=63-	=63-	=63-	=63-	=63-	=63-	=63-	=63-	=63-	=63-	=63-
!LO:SIC:v:l:s=vo	!	!	!	!	!	!	!	!	!	!	!
2GG/	-de	-uo-	00.G;;	-de	-rum	1B-	de-	.	.	2g/	.
1GG	i-	-ru(m)	.	.	.	.	.	.	.	1dd	-tas
!	!	!	!	!	!	!LO:SIC:v:l:s=vo	!	!	!	!	!
.	.	.	.	.	.	2B-\	-uo-	1%5g	-rum	.	.
2GG/	-gne(m)	tu-	.	.	.	1B-\	-tas	.	.	2dd\	ſer-
=64-	=64-	=64-	=64-	=64-	=64-	=64-	=64-	=64-	=64-	=64-	=64-
!	!	!	!	!	!	!	!	!	!	!LO:SIC:v:l:s=vo	!
2GG/	ac-	-o-	.	.	.	.	.	.	.	2dd\	-uo-
2C/	-cen-	.	.	.	.	1c	ſer-	.	.	2ee-X\	.
!LO:TX:b:t=<....a>	!	!	!	!	!	!	!	!	!	!	!
0.GG;;	-de	-rum	.	.	.	.	.	.	.	0.dd	-rum
*	*Xij	*	*	*	*	*	*	*	*	*	*Xij
!	!	!	!	!	!	!LO:SIC:v:l:s=vo	!	!	!	!	!
.	.	.	.	.	.	4B-\	-uo-	.	.	.	.
.	.	.	.	.	.	4A\	.	.	.	.	.
!	!	!	!	!	!	!LO:N:acc=#	!	!	!	!	!
.	.	.	.	.	.	0Bn	-rum	.	.	.	.
!LO:LB:g=original	!	!	!	!	!	!LO:PB:g=original	!	!	!	!	!
=-	=-	=-	=-	=-	=-	==	==	=-	=-	=-	=-
*-	*-	*-	*-	*-	*-	*-	*-	*-	*-	*-	*-
!!!system-decoration: [(s1,s2,s3,s4,s5)]
!!!RDF**kern: < = below
!!!ENC: Marta Chmielewska
!!!END: 2021-04-01
!!!ENC: Kamil Watkowski
!!!END: 2021-03-18
